projects/plugins/jetpack/images/recommendations/wordpress-icon.svg

<svg fill="none" height="20" viewBox="0 0 20 20" width="20" xmlns="http://www.w3.org/2000/svg"><path d="m20 10c0-5.51-4.49-10-10-10-5.52 0-10 4.49-10 10 0 5.52 4.48 10 10 10 5.51 0 10-4.48 10-10zm-12.22 5.37-3.41-9.15c.55-.02 1.17-.08 1.17-.08.5-.06.44-1.13-.06-1.11 0 0-1.45.11-2.37.11-.18 0-.37 0-.58-.01 1.59-2.44 4.34-4.02 7.47-4.02 2.33 0 4.45.87 6.05 2.34-.68-.11-1.65.39-1.65 1.58 0 .74.45 1.36.9 2.1.35.61.55 1.36.55 2.46 0 1.49-1.4 5-1.4 5l-3.03-8.37c.54-.02.82-.17.82-.17.5-.05.44-1.25-.06-1.22 0 0-1.44.12-2.38.12-.87 0-2.33-.12-2.33-.12-.5-.03-.56 1.2-.06 1.22l.92.08 1.26 3.41zm9.63-5.37c.24-.64.74-1.87.43-4.25.7 1.29 1.05 2.71 1.05 4.25 0 3.29-1.73 6.24-4.4 7.78.97-2.59 1.94-5.2 2.92-7.78zm-11.31 8.09c-2.98-1.44-4.99-4.56-4.99-8.09 0-1.3.23-2.48.72-3.59 1.42 3.89 2.84 7.79 4.27 11.68zm4.03-6.63 2.58 6.98c-.86.29-1.76.45-2.71.45-.79 0-1.57-.11-2.29-.33.81-2.38 1.62-4.74 2.42-7.1z" fill="#435bd9"/></svg>

<svg width="20" height="20" viewBox="0 0 20 20" fill="none" xmlns="http://www.w3.org/2000/svg">
<path d="M20 10C20 4.49 15.51 0 10 0C4.48 0 0 4.49 0 10C0 15.52 4.48 20 10 20C15.51 20 20 15.52 20 10ZM7.78 15.37L4.37 6.22C4.92 6.2 5.54 6.14 5.54 6.14C6.04 6.08 5.98 5.01 5.48 5.03C5.48 5.03 4.03 5.14 3.11 5.14C2.93 5.14 2.74 5.14 2.53 5.13C4.12 2.69 6.87 1.11 10 1.11C12.33 1.11 14.45 1.98 16.05 3.45C15.37 3.34 14.4 3.84 14.4 5.03C14.4 5.77 14.85 6.39 15.3 7.13C15.65 7.74 15.85 8.49 15.85 9.59C15.85 11.08 14.45 14.59 14.45 14.59L11.42 6.22C11.96 6.2 12.24 6.05 12.24 6.05C12.74 6 12.68 4.8 12.18 4.83C12.18 4.83 10.74 4.95 9.8 4.95C8.93 4.95 7.47 4.83 7.47 4.83C6.97 4.8 6.91 6.03 7.41 6.05L8.33 6.13L9.59 9.54L7.78 15.37ZM17.41 10C17.65 9.36 18.15 8.13 17.84 5.75C18.54 7.04 18.89 8.46 18.89 10C18.89 13.29 17.16 16.24 14.49 17.78C15.46 15.19 16.43 12.58 17.41 10ZM6.1 18.09C3.12 16.65 1.11 13.53 1.11 10C1.11 8.7 1.34 7.52 1.83 6.41C3.25 10.3 4.67 14.2 6.1 18.09ZM10.13 11.46L12.71 18.44C11.85 18.73 10.95 18.89 10 18.89C9.21 18.89 8.43 18.78 7.71 18.56C8.52 16.18 9.33 13.82 10.13 11.46V11.46Z" fill="#435BD9"/>
</svg>
